X: 38505
T: Steeplechase, The
R: reel
M: 4/4
K: Cmajor
c2 CD EG ~G2|Addc dcAB|c3 A G2cA|G2EC DCA,C|
G,C ~C2 EG ~G2|Addc dcAB|cdcA GAcA|GEDG EC C2:|
c2 ec gcga|gedc dcAB|c2 ec gcec|Addc dcAB|
c2 ec gcga|gedc ABcd|eg ~g2 ea ~a2|gedc c2AB:|

